X: 12
T: Walls Of Liscarrol, The
Z: UPipes & harp
S: https://thesession.org/tunes/232#setting50560
R: jig
M: 6/8
L: 1/8
K: Dmix
|:dcA AGE|GED D2E|GEE cEE|GAB cde|
dcA AGE|GED D2E|GEE cGE|~D3 D (3AB^c:|
|:d^cd e=cA|d^cd e=cA|GEE cEE|GAB cde|
[1 d^cd e=cA|dgd ecA|GEE cGE|~D3 D (3AB^c:|
[2 dcA AGE|GED D2E|GEE cGE|~D3 D3||

%-------------------- TUNE SEPARATOR --------------------%

